X:1
T:La Belle Catherine
M:4/4
L:1/8
R:Country Dance Tune
B:Gow – 2nd Collection of Niel Gow’s Reels, 3rd ed., pg. 36  (orig. 1788)
Z: Contributed 2015-08-24 21:23:51 by Veda Bafford vbusiness@roadrunner.com
K:D
A2|"D"d3 e fede|f2d2d2c2|B2 e2 efed|c2A2 A2 Bc|
d3 e fede|f2d2d2c2|B2e2 dcBA|d4 :||
AG|F2A2 ABAG|F2A2A2G2|F2A2d2f2|edcB AGFE|
F2A2ABAG|F2A2A2Bc|d4e2de|f2d2d2:|

